dist/svg/static/print-small.svg

<svg xmlns="http://www.w3.org/2000/svg" width="24" height="24" viewBox="0 0 24 24"><g fill="none" stroke="currentColor" stroke-miterlimit="10"><path d="M19.603 14.5H22.5a.993.993 0 0 1 1 .987V23.5H.5v-8.013a.993.993 0 0 1 1-.987h2.985"/><path d="M19.5 6.5v12h-15v-17h10l5 5z"/><path d="M14.5 1.5v5h5M8 14.5h8m-8-4h8"/></g></svg>

<?xml version="1.0" encoding="UTF-8" standalone="no"?>
<svg width="24px" height="24px" viewBox="0 0 24 24" version="1.1" xmlns="http://www.w3.org/2000/svg" xmlns:xlink="http://www.w3.org/1999/xlink">
    <!-- Generator: sketchtool 46.2 (44496) - http://www.bohemiancoding.com/sketch -->
    <title>print-small</title>
    <desc>Created with sketchtool.</desc>
    <defs></defs>
    <g id="icons-published" stroke="none" stroke-width="1" fill="none" fill-rule="evenodd">
        <g id="briefing" transform="translate(-356.000000, -1434.000000)"></g>
        <g id="print-small" stroke="#000000">
            <path d="M19.6,14.5 L22.5,14.5 C23,14.5 23.5,14.9 23.5,15.5 C23.5,15.5 23.5,15.5 23.5,15.5 L23.5,23.5 L0.5,23.5 L0.5,15.5 C0.5,15 1,14.5 1.5,14.5 C1.5,14.5 1.5,14.5 1.5,14.5 L4.5,14.5" id="Shape"></path>
            <polygon id="Shape" points="19.5 6.5 19.5 18.5 4.5 18.5 4.5 1.5 14.5 1.5"></polygon>
            <path d="M14.5,1.5 L14.5,6.5 L19.5,6.5 M8,14.5 L16,14.5 M8,10.5 L16,10.5" id="Shape"></path>
        </g>
    </g>
</svg>
